X: 19
T: Vauxhall Walk
%R: jig
B: "Twenty Four Country Dances for the Year 1782", Thomas Skillern, ed. p.10 #1
F: http://www.vwml.org/browse/browse-collections-dance-tune-books/browse-skillerns1782#
Z: 2014 John Chambers <jc:trillian.mit.edu>
M: 6/8
L: 1/8
K: A
|:\
Ace agf | edc B2A | Ace agf | g3 e3 |\
bge afd | gec fdB | efe ecA | B3 A3 :|
|:\
Ace Adf | Ace Adf | Ace agf | g3 e3 |\
bge afd | gec fdB | efe ecA | B3 A3 :|
%%begintext align
%%   Hands across half round & back
%% again Set and Change sides & back
%% again Lead down one Cu. up again
%% cast off and Allemand
%%endtext

%%sep 1 1 500
%%sep 1 1 500
